X:44
T:Arcanul batrinesc
O:rumania
C:Roemenie
M:2/4
L:1/8
Q:1/4=106
K:Gm
V:1
{^F/}"Gm" G3 A/B/|(^c2 ^c/)B/A/B/ |"Gm" ^c/d/d/^c/ ^c/B/A/B/ |{^c/}d2 D2 |
{^F/}"Gm" G3 A/B/|(^c2 ^c/)B/A/B/ |"D" ^c/d/d/^c/ ^c/B/A/B/ |"Gm" Gz "D" Dz :| |:
"Gm" f2 =e2 |d2 "C#" ^c2 |"Gm" d3/2 =e/f/=e/d |g4 |
"Gm" d=e/f/ =ed |"C#" (^c2 "D" ^c/)B/A/B/ |"Gm" .G.D "D" GA/B/ |"Gm" G2 z2 :| |:
{^c/}"Gm" d3 =e/d/|"C#" ^c2 ^c/B/A/B/ |{^c/}"Gm" dd ^c/B/A/B/ |{c/}d2 z2 |
"Dm" d3 =e/d/|"C#" ^c2 ^c/B/A/B/ |{^c/}"D" dd ^c/B/A/B/ |"Gm" Gz z2 :|
